X: 21152
M: 2/4
L: 1/16
K: G
V: 1 name="5"
(Bc) |\
d2B2 b3a | gfge d2B2 | {g}e2d2e2f2 | {a}gfga b2Bc |\
d2B2 b3a | gfge d2B2 | e2d2 {e}g2A2 | G6 z2 H|]
(Bc) |\
{B}AGAB AcBA | B2G2 d3B | edgB {B}AGAB | G2B2"^D.C."G2 |]
|: z2 |\


